src/assets/IconRewardsInactive.svg

<svg width="556" height="555" fill="none" xmlns="http://www.w3.org/2000/svg"><path fill-rule="evenodd" clip-rule="evenodd" d="M277.932 554.231c153.047 0 277.115-124.069 277.115-277.116C555.047 124.069 430.979 0 277.932 0 124.885 0 .816 124.069.816 277.115c0 153.047 124.069 277.116 277.116 277.116z" fill="#FFF3EF"/><path d="M194.291 218.928c22.541 7.685 52.422 11.918 84.138 11.918 31.715 0 61.596-4.233 84.137-11.918 24.026-8.192 37.256-19.685 37.256-32.361 0-12.677-13.23-24.17-37.256-32.361-22.541-7.685-52.422-11.918-84.137-11.918-31.716 0-61.597 4.233-84.138 11.918-24.025 8.191-37.256 19.684-37.256 32.361 0 12.677 13.231 24.169 37.256 32.361z" fill="url(#paint0_linear)"/><path opacity=".5" fill-rule="evenodd" clip-rule="evenodd" d="M391.541 235.815c-1.904 0-3.966.644-6.308 1.968-3.455 1.957-7.819 3.458-12.44 5.049l-1.339.462c-25.225 8.722-58.262 13.526-93.025 13.526-34.763 0-67.8-4.804-93.025-13.526-7.134-2.466-9.116-3.242-11.752-4.596-2.68-1.405-5.173-2.118-7.415-2.118-4.855 0-7.837 3.257-8.639 6.486a18.942 18.942 0 00-.563 4.564c0 12.855 13.231 24.51 37.255 32.816 22.542 7.793 52.422 12.086 84.138 12.086 31.716 0 61.597-4.293 84.138-12.086 24.025-8.306 37.256-19.961 37.256-32.816a19.21 19.21 0 00-.978-6.001c-1.656-5.058-5.286-5.814-7.303-5.814z" fill="url(#paint1_linear)"/><path opacity=".5" fill-rule="evenodd" clip-rule="evenodd" d="M391.543 295.519c-1.904 0-3.966.644-6.307 1.969-3.453 1.953-7.814 3.454-12.429 5.044l-1.352.466c-25.226 8.721-58.263 13.524-93.025 13.524-34.763 0-67.799-4.803-93.025-13.524-7.135-2.468-9.117-3.244-11.753-4.598-2.68-1.405-5.173-2.118-7.415-2.118-4.855 0-7.837 3.258-8.639 6.487a18.934 18.934 0 00-.563 4.563c0 12.856 13.231 24.51 37.255 32.818 22.542 7.793 52.422 12.086 84.138 12.086 31.716 0 61.597-4.293 84.138-12.086 24.025-8.307 37.256-19.962 37.256-32.818a19.19 19.19 0 00-.978-5.999c-1.654-5.058-5.284-5.814-7.301-5.814z" fill="url(#paint2_linear)"/><path opacity=".5" fill-rule="evenodd" clip-rule="evenodd" d="M391.541 355.23c-1.904 0-3.966.643-6.307 1.967-3.459 1.958-7.826 3.46-12.45 5.052l-1.33.459c-25.225 8.722-58.262 13.526-93.025 13.526-34.763 0-67.8-4.804-93.025-13.526-7.134-2.466-9.116-3.242-11.752-4.596-2.68-1.405-5.173-2.118-7.415-2.118-4.855 0-7.837 3.257-8.639 6.486a18.942 18.942 0 00-.563 4.564c0 12.855 13.231 24.51 37.255 32.817 22.542 7.793 52.422 12.086 84.138 12.086 31.716 0 61.597-4.293 84.138-12.086 24.025-8.306 37.256-19.961 37.256-32.817 0-2.002-.326-4.012-.977-5.999-1.656-5.06-5.287-5.815-7.304-5.815z" fill="url(#paint3_linear)"/><defs><linearGradient id="paint0_linear" x1="215.034" y1="129.446" x2="285.008" y2="272.835" gradientUnits="userSpaceOnUse"><stop stop-color="#FFEFE0"/><stop offset="1" stop-color="#FBB"/></linearGradient><linearGradient id="paint1_linear" x1="215.034" y1="227.59" x2="247.408" y2="331.175" gradientUnits="userSpaceOnUse"><stop stop-color="#FFEFE0"/><stop offset="1" stop-color="#FBB"/></linearGradient><linearGradient id="paint2_linear" x1="215.034" y1="287.294" x2="247.408" y2="390.879" gradientUnits="userSpaceOnUse"><stop stop-color="#FFEFE0"/><stop offset="1" stop-color="#FBB"/></linearGradient><linearGradient id="paint3_linear" x1="215.034" y1="347.005" x2="247.408" y2="450.59" gradientUnits="userSpaceOnUse"><stop stop-color="#FFEFE0"/><stop offset="1" stop-color="#FBB"/></linearGradient></defs></svg>

<svg width="556" height="555" viewBox="0 0 556 555" fill="none" xmlns="http://www.w3.org/2000/svg">
<path fill-rule="evenodd" clip-rule="evenodd" d="M277.932 554.231C430.979 554.231 555.047 430.162 555.047 277.115C555.047 124.069 430.979 0 277.932 0C124.885 0 0.816406 124.069 0.816406 277.115C0.816406 430.162 124.885 554.231 277.932 554.231Z" fill="#FFF3EF"/>
<path d="M194.291 218.928C216.832 226.613 246.713 230.846 278.429 230.846C310.144 230.846 340.025 226.613 362.566 218.928C386.592 210.736 399.822 199.243 399.822 186.567C399.822 173.89 386.592 162.397 362.566 154.206C340.025 146.521 310.144 142.288 278.429 142.288C246.713 142.288 216.832 146.521 194.291 154.206C170.266 162.397 157.035 173.89 157.035 186.567C157.035 199.244 170.266 210.736 194.291 218.928Z" fill="url(#paint0_linear)"/>
<path opacity="0.5" fill-rule="evenodd" clip-rule="evenodd" d="M391.541 235.815C389.637 235.815 387.575 236.459 385.233 237.783C381.778 239.74 377.414 241.241 372.793 242.832L371.454 243.294C346.229 252.016 313.192 256.82 278.429 256.82C243.666 256.82 210.629 252.016 185.404 243.294C178.27 240.828 176.288 240.052 173.652 238.698C170.972 237.293 168.479 236.58 166.237 236.58C161.382 236.58 158.4 239.837 157.598 243.066C157.224 244.571 157.035 246.106 157.035 247.63C157.035 260.485 170.266 272.14 194.29 280.446C216.832 288.239 246.712 292.532 278.428 292.532C310.144 292.532 340.025 288.239 362.566 280.446C386.591 272.14 399.822 260.485 399.822 247.63C399.822 245.628 399.496 243.619 398.844 241.629C397.188 236.571 393.558 235.815 391.541 235.815Z" fill="url(#paint1_linear)"/>
<path opacity="0.5" fill-rule="evenodd" clip-rule="evenodd" d="M391.543 295.519C389.639 295.519 387.577 296.163 385.236 297.488C381.783 299.441 377.422 300.942 372.807 302.532L371.455 302.998C346.229 311.719 313.192 316.522 278.43 316.522C243.667 316.522 210.631 311.719 185.405 302.998C178.27 300.53 176.288 299.754 173.652 298.4C170.972 296.995 168.479 296.282 166.237 296.282C161.382 296.282 158.4 299.54 157.598 302.769C157.224 304.273 157.035 305.809 157.035 307.332C157.035 320.188 170.266 331.842 194.29 340.15C216.832 347.943 246.712 352.236 278.428 352.236C310.144 352.236 340.025 347.943 362.566 340.15C386.591 331.843 399.822 320.188 399.822 307.332C399.822 305.33 399.496 303.321 398.844 301.333C397.19 296.275 393.56 295.519 391.543 295.519Z" fill="url(#paint2_linear)"/>
<path opacity="0.5" fill-rule="evenodd" clip-rule="evenodd" d="M391.541 355.23C389.637 355.23 387.575 355.873 385.234 357.197C381.775 359.155 377.408 360.657 372.784 362.249L371.454 362.708C346.229 371.43 313.192 376.234 278.429 376.234C243.666 376.234 210.629 371.43 185.404 362.708C178.27 360.242 176.288 359.466 173.652 358.112C170.972 356.707 168.479 355.994 166.237 355.994C161.382 355.994 158.4 359.251 157.598 362.48C157.224 363.985 157.035 365.52 157.035 367.044C157.035 379.899 170.266 391.554 194.29 399.861C216.832 407.654 246.712 411.947 278.428 411.947C310.144 411.947 340.025 407.654 362.566 399.861C386.591 391.555 399.822 379.9 399.822 367.044C399.822 365.042 399.496 363.032 398.845 361.045C397.189 355.985 393.558 355.23 391.541 355.23Z" fill="url(#paint3_linear)"/>
<defs>
<linearGradient id="paint0_linear" x1="215.034" y1="129.446" x2="285.008" y2="272.835" gradientUnits="userSpaceOnUse">
<stop stop-color="#FFEFE0"/>
<stop offset="1" stop-color="#FFBBBB"/>
</linearGradient>
<linearGradient id="paint1_linear" x1="215.034" y1="227.59" x2="247.408" y2="331.175" gradientUnits="userSpaceOnUse">
<stop stop-color="#FFEFE0"/>
<stop offset="1" stop-color="#FFBBBB"/>
</linearGradient>
<linearGradient id="paint2_linear" x1="215.034" y1="287.294" x2="247.408" y2="390.879" gradientUnits="userSpaceOnUse">
<stop stop-color="#FFEFE0"/>
<stop offset="1" stop-color="#FFBBBB"/>
</linearGradient>
<linearGradient id="paint3_linear" x1="215.034" y1="347.005" x2="247.408" y2="450.59" gradientUnits="userSpaceOnUse">
<stop stop-color="#FFEFE0"/>
<stop offset="1" stop-color="#FFBBBB"/>
</linearGradient>
</defs>
</svg>
